;FLAVOR:Marlin
;TIME:6666
;Filament used: 0m
;Layer height: 0.1
;MINX:2.14748e+006
;MINY:2.14748e+006
;MINZ:2.14748e+006
;MAXX:-2.14748e+006
;MAXY:-2.14748e+006
;MAXZ:-2.14748e+006

;Generated with Cura_SteamEngine 4.3.0
M104 S215
M105
M109 S215
M82 ;absolute extrusion mode
G28 ;Home
G1 Z15.0 F6000 ;Move the platform down 15mm
;Prime the extruder
G92 E0
G1 F200 E3
G92 E0
G92 E0
G92 E0
G1 F1500 E-6.5
;LAYER_COUNT:398
;LAYER:0
M107
G0 F3600 X24.623 Y24.349 Z0.3
;TYPE:SKIRT
G1 F1500 E0
G1 F1800 X25.222 Y23.834 E0.01486
G1 X25.87 Y23.383 E0.02971
G1 X26.561 Y22.999 E0.04458
G1 X27.286 Y22.687 E0.05943
G1 X28.039 Y22.45 E0.07428
G1 X28.813 Y22.291 E0.08914
G1 X29.598 Y22.21 E0.10398
G1 X30 Y22.2 E0.11155
G1 X40 Y22.2 E0.29965
G1 X40.789 Y22.24 E0.31452
G1 X41.569 Y22.359 E0.32936
G1 X42.334 Y22.557 E0.34422
G1 X43.074 Y22.831 E0.35906
G1 X43.783 Y23.179 E0.37392
G1 X44.454 Y23.597 E0.38879
G1 X45.078 Y24.08 E0.40364
G1 X45.651 Y24.623 E0.41848
G1 X46.166 Y25.222 E0.43334
G1 X46.617 Y25.87 E0.4482
G1 X47.001 Y26.561 E0.46307
G1 X47.313 Y27.286 E0.47791
G1 X47.55 Y28.039 E0.49276
G1 X47.709 Y28.813 E0.50763
G1 X47.79 Y29.598 E0.52247
G1 X47.8 Y30 E0.53003
G1 X47.8 Y42.2 E0.75952
G1 X50 Y42.2 E0.80091
G1 X50.789 Y42.24 E0.81577
G1 X51.569 Y42.359 E0.83061
G1 X52.334 Y42.557 E0.84547
G1 X53.074 Y42.831 E0.86032
G1 X53.783 Y43.179 E0.87517
G1 X54.454 Y43.597 E0.89004
G1 X55.078 Y44.08 E0.90489
G1 X55.651 Y44.623 E0.91974
G1 X56.166 Y45.222 E0.9346
G1 X56.617 Y45.87 E0.94945
G1 X57.001 Y46.561 E0.96432
G1 X57.313 Y47.286 E0.97916
G1 X57.55 Y48.039 E0.99401
G1 X57.709 Y48.813 E1.00888
G1 X57.79 Y49.598 E1.02372
G1 X57.8 Y50 E1.03129
G1 X57.8 Y52.2 E1.07267
G1 X70 Y52.2 E1.30216
G1 X70.789 Y52.24 E1.31702
G1 X71.569 Y52.359 E1.33186
G1 X72.334 Y52.557 E1.34672
G1 X73.074 Y52.831 E1.36157
G1 X73.783 Y53.179 E1.37642
G1 X74.454 Y53.597 E1.39129
G1 X75.078 Y54.08 E1.40614
G1 X75.651 Y54.623 E1.42099
G1 X76.166 Y55.222 E1.43585
G1 X76.617 Y55.87 E1.4507
G1 X77.001 Y56.561 E1.46557
G1 X77.313 Y57.286 E1.48041
G1 X77.55 Y58.039 E1.49526
G1 X77.709 Y58.813 E1.51013
G1 X77.79 Y59.598 E1.52497
G1 X77.8 Y60 E1.53254
G1 X77.8 Y70 E1.72064
G1 X77.76 Y70.789 E1.7355
G1 X77.641 Y71.569 E1.75034
G1 X77.443 Y72.334 E1.76521
G1 X77.169 Y73.074 E1.78005
G1 X76.821 Y73.783 E1.79491
G1 X76.403 Y74.454 E1.80978
G1 X75.92 Y75.078 E1.82462
G1 X75.377 Y75.651 E1.83947
G1 X74.778 Y76.166 E1.85433
G1 X74.13 Y76.617 E1.86918
G1 X73.439 Y77.001 E1.88405
G1 X72.714 Y77.313 E1.8989
G1 X71.961 Y77.55 E1.91375
G1 X71.187 Y77.709 E1.92861
G1 X70.402 Y77.79 E1.94346
G1 X70 Y77.8 E1.95102
G1 X30 Y77.8 E2.70344
G1 X29.211 Y77.76 E2.7183
G1 X28.431 Y77.641 E2.73315
G1 X27.666 Y77.443 E2.74801
G1 X26.926 Y77.169 E2.76285
G1 X26.217 Y76.821 E2.77771
G1 X25.546 Y76.403 E2.79258
G1 X24.922 Y75.92 E2.80742
G1 X24.349 Y75.377 E2.82227
G1 X23.834 Y74.778 E2.83713
G1 X23.383 Y74.13 E2.85198
G1 X22.999 Y73.439 E2.86685
G1 X22.687 Y72.714 E2.8817
G1 X22.45 Y71.961 E2.89655
G1 X22.291 Y71.187 E2.91141
G1 X22.21 Y70.402 E2.92626
G1 X22.2 Y70 E2.93382
G1 X22.2 Y30 E3.68624
G1 X22.24 Y29.211 E3.70111
G1 X22.359 Y28.431 E3.71595
G1 X22.557 Y27.666 E3.73081
G1 X22.831 Y26.926 E3.74565
G1 X23.179 Y26.217 E3.76051
G1 X23.597 Y25.546 E3.77538
G1 X24.08 Y24.922 E3.79023
G1 X24.623 Y24.349 E3.80507
G0 F3600 X25.016 Y24.53
G1 F1800 X25.611 Y24.042 E3.81955
G1 X26.253 Y23.619 E3.83401
G1 X26.936 Y23.264 E3.84849
G1 X27.651 Y22.983 E3.86294
G1 X28.393 Y22.777 E3.87743
G1 X29.151 Y22.649 E3.89189
G1 X30 Y22.6 E3.90788
G1 X40 Y22.6 E4.09599
G1 X40.768 Y22.64 E4.11046
G1 X41.528 Y22.759 E4.12493
G1 X42.271 Y22.957 E4.13939
G1 X42.99 Y23.231 E4.15386
G1 X43.676 Y23.578 E4.16833
G1 X44.323 Y23.994 E4.18279
G1 X44.923 Y24.475 E4.19726
G1 X45.47 Y25.016 E4.21173
G1 X45.958 Y25.611 E4.22621
G1 X46.381 Y26.253 E4.24067
G1 X46.736 Y26.936 E4.25515
G1 X47.017 Y27.651 E4.2696
G1 X47.223 Y28.393 E4.28408
G1 X47.351 Y29.151 E4.29854
G1 X47.4 Y30 E4.31454
G1 X47.4 Y42.6 E4.55155
G1 X50 Y42.6 E4.60046
G1 X50.768 Y42.64 E4.61493
G1 X51.528 Y42.759 E4.6294
G1 X52.271 Y42.957 E4.64386
G1 X52.99 Y43.231 E4.65834
G1 X53.676 Y43.578 E4.6728
G1 X54.323 Y43.994 E4.68727
G1 X54.923 Y44.475 E4.70173
G1 X55.47 Y45.016 E4.7162
G1 X55.958 Y45.611 E4.73068
G1 X56.381 Y46.253 E4.74514
G1 X56.736 Y46.936 E4.75962
G1 X57.017 Y47.651 E4.77407
G1 X57.223 Y48.393 E4.78856
G1 X57.351 Y49.151 E4.80302
G1 X57.4 Y50 E4.81901
G1 X57.4 Y52.6 E4.86792
G1 X70 Y52.6 E5.10493
G1 X70.768 Y52.64 E5.1194
G1 X71.528 Y52.759 E5.13387
G1 X72.271 Y52.957 E5.14833
G1 X72.99 Y53.231 E5.16281
G1 X73.676 Y53.578 E5.17727
G1 X74.323 Y53.994 E5.19174
G1 X74.923 Y54.475 E5.2062
G1 X75.47 Y55.016 E5.22067
G1 X75.958 Y55.611 E5.23515
G1 X76.381 Y56.253 E5.24961
G1 X76.736 Y56.936 E5.26409
G1 X77.017 Y57.651 E5.27854
G1 X77.223 Y58.393 E5.29303
G1 X77.351 Y59.151 E5.30749
G1 X77.4 Y60 E5.32348
G1 X77.4 Y70 E5.51159
G1 X77.36 Y70.768 E5.52606
G1 X77.241 Y71.528 E5.54053
G1 X77.043 Y72.271 E5.55499
G1 X76.769 Y72.99 E5.56946
G1 X76.422 Y73.676 E5.58392
G1 X76.006 Y74.323 E5.59839
G1 X75.525 Y74.923 E5.61286
G1 X74.984 Y75.47 E5.62733
G1 X74.389 Y75.958 E5.64181
G1 X73.747 Y76.381 E5.65627
G1 X73.064 Y76.736 E5.67075
G1 X72.349 Y77.017 E5.6852
G1 X71.607 Y77.223 E5.69968
G1 X70.849 Y77.351 E5.71414
G1 X70 Y77.4 E5.73014
G1 X30 Y77.4 E6.48256
G1 X29.232 Y77.36 E6.49703
G1 X28.472 Y77.241 E6.5115
G1 X27.729 Y77.043 E6.52596
G1 X27.01 Y76.769 E6.54044
G1 X26.324 Y76.422 E6.5549
G1 X25.677 Y76.006 E6.56937
G1 X25.077 Y75.525 E6.58383
G1 X24.53 Y74.984 E6.5983
G1 X24.042 Y74.389 E6.61278
G1 X23.619 Y73.747 E6.62724
G1 X23.264 Y73.064 E6.64172
G1 X22.983 Y72.349 E6.65617
G1 X22.777 Y71.607 E6.67066
G1 X22.649 Y70.849 E6.68512
G1 X22.6 Y70 E6.70111
G1 X22.6 Y30 E7.45354
G1 X22.64 Y29.232 E7.468
G1 X22.759 Y28.472 E7.48247
G1 X22.957 Y27.729 E7.49694
G1 X23.231 Y27.01 E7.51141
G1 X23.578 Y26.324 E7.52587
G1 X23.994 Y25.677 E7.54034
G1 X24.475 Y25.077 E7.55481
G1 X25.016 Y24.53 E7.56928
G0 F3600 X25.408 Y24.716
G1 F1800 X25.998 Y24.257 E7.58334
G1 X26.634 Y23.862 E7.59742
G1 X27.308 Y23.538 E7.61149
G1 X28.013 Y23.288 E7.62556
G1 X28.741 Y23.114 E7.63964
G1 X29.483 Y23.019 E7.65371
G1 X30 Y23 E7.66344
G1 X40 Y23 E7.85155
G1 X40.747 Y23.04 E7.86562
G1 X41.485 Y23.159 E7.87968
G1 X42.207 Y23.357 E7.89376
G1 X42.903 Y23.63 E7.90783
G1 X43.566 Y23.977 E7.9219
G1 X44.189 Y24.392 E7.93598
G1 X44.763 Y24.871 E7.95005
G1 X45.284 Y25.408 E7.96412
G1 X45.743 Y25.998 E7.97818
G1 X46.138 Y26.634 E7.99226
G1 X46.462 Y27.308 E8.00633
G1 X46.712 Y28.013 E8.0204
G1 X46.886 Y28.741 E8.03448
G1 X46.981 Y29.483 E8.04855
G1 X47 Y30 E8.05829
G1 X47 Y43 E8.30282
G1 X50 Y43 E8.35925
G1 X50.747 Y43.04 E8.37333
G1 X51.485 Y43.159 E8.38739
G1 X52.207 Y43.357 E8.40147
G1 X52.903 Y43.63 E8.41553
G1 X53.566 Y43.977 E8.42961
G1 X54.189 Y44.392 E8.44369
G1 X54.763 Y44.871 E8.45775
G1 X55.284 Y45.408 E8.47183
G1 X55.743 Y45.998 E8.48589
G1 X56.138 Y46.634 E8.49997
G1 X56.462 Y47.308 E8.51404
G1 X56.712 Y48.013 E8.52811
G1 X56.886 Y48.741 E8.54219
G1 X56.981 Y49.483 E8.55626
G1 X57 Y50 E8.56599
G1 X57 Y53 E8.62242
G1 X70 Y53 E8.86696
G1 X70.747 Y53.04 E8.88103
G1 X71.485 Y53.159 E8.89509
G1 X72.207 Y53.357 E8.90918
G1 X72.903 Y53.63 E8.92324
G1 X73.566 Y53.977 E8.93732
G1 X74.189 Y54.392 E8.9514
G1 X74.763 Y54.871 E8.96546
G1 X75.284 Y55.408 E8.97953
G1 X75.743 Y55.998 E8.9936
G1 X76.138 Y56.634 E9.00768
G1 X76.462 Y57.308 E9.02175
G1 X76.712 Y58.013 E9.03582
G1 X76.886 Y58.741 E9.0499
G1 X76.981 Y59.483 E9.06397
G1 X77 Y60 E9.0737
G1 X77 Y70 E9.2618
G1 X76.96 Y70.747 E9.27588
G1 X76.841 Y71.485 E9.28994
G1 X76.643 Y72.207 E9.30402
G1 X76.37 Y72.903 E9.31808
G1 X76.023 Y73.566 E9.33216
G1 X75.608 Y74.189 E9.34624
G1 X75.129 Y74.763 E9.3603
G1 X74.592 Y75.284 E9.37438
G1 X74.002 Y75.743 E9.38844
G1 X73.366 Y76.138 E9.40252
G1 X72.692 Y76.462 E9.41659
G1 X71.987 Y76.712 E9.43066
G1 X71.259 Y76.886 E9.44474
G1 X70.517 Y76.981 E9.45881
G1 X70 Y77 E9.46854
G1 X30 Y77 E10.22097
G1 X29.253 Y76.96 E10.23504
G1 X28.515 Y76.841 E10.2491
G1 X27.793 Y76.643 E10.26318
G1 X27.097 Y76.37 E10.27724
G1 X26.434 Y76.023 E10.29132
G1 X25.811 Y75.608 E10.3054
G1 X25.237 Y75.129 E10.31946
G1 X24.716 Y74.592 E10.33354
G1 X24.257 Y74.002 E10.3476
G1 X23.862 Y73.366 E10.36168
G1 X23.538 Y72.692 E10.37575
G1 X23.288 Y71.987 E10.38982
G1 X23.114 Y71.259 E10.4039
G1 X23.019 Y70.517 E10.41797
G1 X23 Y70 E10.4277
G1 X23 Y30 E11.18013
G1 X23.04 Y29.253 E11.1942
G1 X23.159 Y28.515 E11.20826
G1 X23.357 Y27.793 E11.22234
G1 X23.63 Y27.097 E11.2364
G1 X23.977 Y26.434 E11.25048
G1 X24.392 Y25.811 E11.26456
G1 X24.871 Y25.237 E11.27862
G1 X25.408 Y24.716 E11.2927
G0 F3600 X25.265 Y25.402
G1 F1800 X25.799 Y24.909 E11.30637
G1 X26.384 Y24.479 E11.32003
G1 X27.013 Y24.115 E11.3337
G1 X27.678 Y23.822 E11.34737
G1 X28.371 Y23.604 E11.36103
G1 X29.083 Y23.464 E11.37468
G1 X30 Y23.4 E11.39197
G1 X40 Y23.4 E11.58008
G1 X40.725 Y23.44 E11.59374
G1 X41.442 Y23.559 E11.60741
G1 X42.141 Y23.757 E11.62107
G1 X42.814 Y24.03 E11.63474
G1 X43.453 Y24.375 E11.6484
G1 X44.05 Y24.789 E11.66206
G1 X44.598 Y25.265 E11.67572
G1 X45.091 Y25.799 E11.68939
G1 X45.521 Y26.384 E11.70304
G1 X45.885 Y27.013 E11.71671
G1 X46.178 Y27.678 E11.73038
G1 X46.396 Y28.371 E11.74405
G1 X46.536 Y29.083 E11.7577
G1 X46.6 Y30 E11.77499
G1 X46.6 Y43.4 E12.02705
G1 X50 Y43.4 E12.09101
G1 X50.725 Y43.44 E12.10467
G1 X51.442 Y43.559 E12.11834
G1 X52.141 Y43.757 E12.132
G1 X52.814 Y44.03 E12.14566
G1 X53.453 Y44.375 E12.15932
G1 X54.05 Y44.789 E12.17299
G1 X54.598 Y45.265 E12.18664
G1 X55.091 Y45.799 E12.20032
G1 X55.521 Y46.384 E12.21397
G1 X55.885 Y47.013 E12.22764
G1 X56.178 Y47.678 E12.24131
G1 X56.396 Y48.371 E12.25498
G1 X56.536 Y49.083 E12.26863
G1 X56.6 Y50 E12.28592
G1 X56.6 Y53.4 E12.34987
G1 X70 Y53.4 E12.60194
G1 X70.725 Y53.44 E12.61559
G1 X71.442 Y53.559 E12.62927
G1 X72.141 Y53.757 E12.64293
G1 X72.814 Y54.03 E12.65659
G1 X73.453 Y54.375 E12.67025
G1 X74.05 Y54.789 E12.68392
G1 X74.598 Y55.265 E12.69757
G1 X75.091 Y55.799 E12.71124
G1 X75.521 Y56.384 E12.7249
G1 X75.885 Y57.013 E12.73857
G1 X76.178 Y57.678 E12.75224
G1 X76.396 Y58.371 E12.76591
G1 X76.536 Y59.083 E12.77956
G1 X76.6 Y60 E12.79685
G1 X76.6 Y70 E12.98495
G1 X76.56 Y70.725 E12.99861
G1 X76.441 Y71.442 E13.01228
G1 X76.243 Y72.141 E13.02595
G1 X75.97 Y72.814 E13.03961
G1 X75.625 Y73.453 E13.05327
G1 X75.211 Y74.05 E13.06694
G1 X74.735 Y74.598 E13.08059
G1 X74.201 Y75.091 E13.09426
G1 X73.616 Y75.521 E13.10792
G1 X72.987 Y75.885 E13.12159
G1 X72.322 Y76.178 E13.13526
G1 X71.629 Y76.396 E13.14892
G1 X70.917 Y76.536 E13.16257
G1 X70 Y76.6 E13.17986
G1 X30 Y76.6 E13.93229
G1 X29.275 Y76.56 E13.94594
G1 X28.558 Y76.441 E13.95962
G1 X27.859 Y76.243 E13.97328
G1 X27.186 Y75.97 E13.98694
G1 X26.547 Y75.625 E14.0006
G1 X25.95 Y75.211 E14.01427
G1 X25.402 Y74.735 E14.02792
G1 X24.909 Y74.201 E14.04159
G1 X24.479 Y73.616 E14.05525
G1 X24.115 Y72.987 E14.06892
G1 X23.822 Y72.322 E14.08259
G1 X23.604 Y71.629 E14.09626
G1 X23.464 Y70.917 E14.10991
G1 X23.4 Y70 E14.1272
G1 X23.4 Y30 E14.87962
G1 X23.44 Y29.275 E14.89328
G1 X23.559 Y28.558 E14.90695
G1 X23.757 Y27.859 E14.92062
G1 X24.03 Y27.186 E14.93428
G1 X24.375 Y26.547 E14.94794
G1 X24.789 Y25.95 E14.9616
G1 X25.265 Y25.402 E14.97526
G0 F3600 X25.659 Y25.573
G1 F1800 X26.189 Y25.109 E14.98851
G1 X26.768 Y24.709 E15.00174
G1 X27.389 Y24.377 E15.01499
G1 X28.043 Y24.117 E15.02823
G1 X28.723 Y23.933 E15.04148
G1 X29.419 Y23.827 E15.05472
G1 X30 Y23.8 E15.06566
G1 X40 Y23.8 E15.25377
G1 X40.703 Y23.84 E15.26702
G1 X41.397 Y23.959 E15.28026
G1 X42.072 Y24.157 E15.29349
G1 X42.721 Y24.429 E15.30673
G1 X43.335 Y24.774 E15.31998
G1 X43.906 Y25.185 E15.33321
G1 X44.427 Y25.659 E15.34646
G1 X44.891 Y26.189 E15.35971
G1 X45.291 Y26.768 E15.37295
G1 X45.623 Y27.389 E15.38619
G1 X45.883 Y28.043 E15.39943
G1 X46.067 Y28.723 E15.41268
G1 X46.173 Y29.419 E15.42593
G1 X46.2 Y30 E15.43687
G1 X46.2 Y43.8 E15.69645
G1 X50 Y43.8 E15.76793
G1 X50.703 Y43.84 E15.78118
G1 X51.397 Y43.959 E15.79442
G1 X52.072 Y44.157 E15.80766
G1 X52.721 Y44.429 E15.82089
G1 X53.335 Y44.774 E15.83414
G1 X53.906 Y45.185 E15.84737
G1 X54.427 Y45.659 E15.86062
G1 X54.891 Y46.189 E15.87387
G1 X55.291 Y46.768 E15.88711
G1 X55.623 Y47.389 E15.90036
G1 X55.883 Y48.043 E15.9136
G1 X56.067 Y48.723 E15.92685
G1 X56.173 Y49.419 E15.94009
G1 X56.2 Y50 E15.95103
G1 X56.2 Y53.8 E16.02251
G1 X70 Y53.8 E16.2821
G1 X70.703 Y53.84 E16.29534
G1 X71.397 Y53.959 E16.30859
G1 X72.072 Y54.157 E16.32182
G1 X72.721 Y54.429 E16.33506
G1 X73.335 Y54.774 E16.3483
G1 X73.906 Y55.185 E16.36154
G1 X74.427 Y55.659 E16.37479
G1 X74.891 Y56.189 E16.38804
G1 X75.291 Y56.768 E16.40128
G1 X75.623 Y57.389 E16.41452
G1 X75.883 Y58.043 E16.42776
G1 X76.067 Y58.723 E16.44101
G1 X76.173 Y59.419 E16.45426
G1 X76.2 Y60 E16.4652
G1 X76.2 Y70 E16.6533
G1 X76.16 Y70.703 E16.66655
G1 X76.041 Y71.397 E16.67979
G1 X75.843 Y72.072 E16.69302
G1 X75.571 Y72.721 E16.70626
G1 X75.226 Y73.335 E16.71951
G1 X74.815 Y73.906 E16.73274
G1 X74.341 Y74.427 E16.74599
G1 X73.811 Y74.891 E16.75924
G1 X73.232 Y75.291 E16.77248
G1 X72.611 Y75.623 E16.78573
G1 X71.957 Y75.883 E16.79896
G1 X71.277 Y76.067 E16.81222
G1 X70.581 Y76.173 E16.82546
G1 X70 Y76.2 E16.8364
G1 X30 Y76.2 E17.58882
G1 X29.297 Y76.16 E17.60207
G1 X28.603 Y76.041 E17.61531
G1 X27.928 Y75.843 E17.62854
G1 X27.279 Y75.571 E17.64178
G1 X26.665 Y75.226 E17.65503
G1 X26.094 Y74.815 E17.66826
G1 X25.573 Y74.341 E17.68151
G1 X25.109 Y73.811 E17.69476
G1 X24.709 Y73.232 E17.708
G1 X24.377 Y72.611 E17.72125
G1 X24.117 Y71.957 E17.73448
G1 X23.933 Y71.277 E17.74774
G1 X23.827 Y70.581 E17.76098
G1 X23.8 Y70 E17.77192
G1 X23.8 Y30 E18.52434
G1 X23.84 Y29.297 E18.53759
G1 X23.959 Y28.603 E18.55083
G1 X24.157 Y27.928 E18.56406
G1 X24.429 Y27.279 E18.5773
G1 X24.774 Y26.665 E18.59055
G1 X25.185 Y26.094 E18.60378
G1 X25.659 Y25.573 E18.61703
G0 F3600 X26.053 Y25.751
G1 F1800 X26.578 Y25.317 E18.62985
G1 X27.15 Y24.948 E18.64265
G1 X27.762 Y24.649 E18.65546
G1 X28.404 Y24.424 E18.66826
G1 X29.069 Y24.275 E18.68108
G1 X30 Y24.2 E18.69865
G1 X40 Y24.2 E18.88675
G1 X40.68 Y24.24 E18.89957
G1 X41.35 Y24.359 E18.91237
G1 X42.002 Y24.556 E18.92518
G1 X42.626 Y24.828 E18.93798
G1 X43.214 Y25.172 E18.9508
G1 X43.758 Y25.582 E18.96361
G1 X44.249 Y26.053 E18.97641
G1 X44.683 Y26.578 E18.98922
G1 X45.052 Y27.15 E19.00203
G1 X45.351 Y27.762 E19.01484
G1 X45.576 Y28.404 E19.02764
G1 X45.725 Y29.069 E19.04046
G1 X45.8 Y30 E19.05802
G1 X45.8 Y44.2 E19.32513
G1 X50 Y44.2 E19.40414
G1 X50.68 Y44.24 E19.41695
G1 X51.35 Y44.359 E19.42975
G1 X52.002 Y44.556 E19.44256
G1 X52.626 Y44.828 E19.45537
G1 X53.214 Y45.172 E19.46818
G1 X53.758 Y45.582 E19.481
G1 X54.249 Y46.053 E19.4938
G1 X54.683 Y46.578 E19.50661
G1 X55.052 Y47.15 E19.51941
G1 X55.351 Y47.762 E19.53223
G1 X55.576 Y48.404 E19.54502
G1 X55.725 Y49.069 E19.55784
G1 X55.8 Y50 E19.57541
G1 X55.8 Y54.2 E19.65441
G1 X70 Y54.2 E19.92152
G1 X70.68 Y54.24 E19.93434
G1 X71.35 Y54.359 E19.94714
G1 X72.002 Y54.556 E19.95995
G1 X72.626 Y54.828 E19.97275
G1 X73.214 Y55.172 E19.98557
G1 X73.758 Y55.582 E19.99838
G1 X74.249 Y56.053 E20.01118
G1 X74.683 Y56.578 E20.02399
G1 X75.052 Y57.15 E20.0368
G1 X75.351 Y57.762 E20.04961
G1 X75.576 Y58.404 E20.06241
G1 X75.725 Y59.069 E20.07523
G1 X75.8 Y60 E20.0928
G1 X75.8 Y70 E20.2809
G1 X75.76 Y70.68 E20.29372
G1 X75.641 Y71.35 E20.30652
G1 X75.444 Y72.002 E20.31933
G1 X75.172 Y72.626 E20.33213
G1 X74.828 Y73.214 E20.34495
G1 X74.418 Y73.758 E20.35776
G1 X73.947 Y74.249 E20.37056
G1 X73.422 Y74.683 E20.38337
G1 X72.85 Y75.052 E20.39618
G1 X72.238 Y75.351 E20.40899
G1 X71.596 Y75.576 E20.42179
G1 X70.931 Y75.725 E20.4346
G1 X70 Y75.8 E20.45217
G1 X30 Y75.8 E21.2046
G1 X29.32 Y75.76 E21.21741
G1 X28.65 Y75.641 E21.23021
G1 X27.998 Y75.444 E21.24302
G1 X27.374 Y75.172 E21.25583
G1 X26.786 Y74.828 E21.26864
G1 X26.242 Y74.418 E21.28145
G1 X25.751 Y73.947 E21.29425
G1 X25.317 Y73.422 E21.30707
G1 X24.948 Y72.85 E21.31987
G1 X24.649 Y72.238 E21.33268
G1 X24.424 Y71.596 E21.34548
G1 X24.275 Y70.931 E21.3583
G1 X24.2 Y70 E21.37587
